!!!SOCIAL_FUNCTION:	bird dance songs
!!!PDT:	1932
!!!OTL: No_108_Song_Concerning_the_Pleiades.krn
!!!REG: Southwest
!!!LANG: Non-Tone
!!!LING_GROUP: Yuman-Cochimi
**kern	**kern
*staff2	*staff1
=1-	=1-
*clefF4	*clefF4
*k[b-e-]	*k[b-e-]
*M2/4	*M2/4
8GG/L	8r
8GG/J	8B-\
8GG/	8.F\L
16r	.
16GG/	16D\Jk
=2	=2
8GG/L	8.F\L
8GG/J	.
.	16F\Jk
8GG/	8F\
16r	8r
16GG/	.
=3	=3
2r	4r
.	8r
.	8D\
=4	=4
2r	8.B-;\L
.	16F\Jk
.	12F\L
.	12F\
.	12D\J
=5	=5
2r	8.F\L
.	16F\Jk
.	4F\
=6||	=6||
*M3/8	*M3/8
4.r	8r
.	16r
.	16D\LK
.	8D\J
=7||	=7||
*M2/4	*M2/4
2r	8.F;\L
.	16F\Jk
.	8.F\L
.	16D\Jk
=8	=8
2r	8.F\L
.	16F\Jk
.	8F\
.	8r
=9	=9
2r	2r
=10	=10
2r	8.B-;\L
.	16F\Jk
.	12G\L
.	12D\
.	12D\J
=11	=11
2r	8.F\L
.	16F\Jk
.	4F\
=12	=12
2r	8r
.	16r
.	16D\
.	8.D\L
.	16F\Jk
=13	=13
2r	8.F\L
.	16F\Jk
.	8.F\L
.	16D\Jk
=14	=14
2r	8.F\L
.	16F\Jk
.	8F\
.	8r
=15	=15
2r	2r
=16!|:	=16!|:
2r	8.B-;\L
.	16F\Jk
.	12G\L
.	12D\
.	12D\J
=17	=17
2r	8.F\L
.	16F\Jk
.	4F\
=18	=18
2r	8.r
.	16D\
.	8.D\L
.	16F\Jk
=19	=19
2r	8.F\L
.	16F\Jk
.	8.F\L
.	16D\Jk
=20	=20
2r	8.F\L
.	16F\Jk
.	8F\
.	8r
=21	=21
2r	2r
=22	=22
2r	2r
=23||	=23||
*M3/8	*M3/8
4.r	8r
.	16r
.	16F\LK
.	8F\J
=24||	=24||
*M2/4	*M2/4
2r	8.c;\L
.	16c\Jk
.	8.B-\L
.	16G\Jk
=25	=25
2r	8.B-\L
.	16B-\Jk
.	12G\L
.	12D\
.	12D\J
=26||	=26||
*M3/8	*M3/8
4.r	4F\
.	8F\
=27||	=27||
*M2/4	*M2/4
2r	8.B-\L
.	16F\Jk
.	12G\L
.	12D\
.	12D\J
=28	=28
2r	8.F\L
.	16F\Jk
.	4F\
=29||	=29||
*M3/8	*M3/8
4.r	8r
.	16r
.	16D\LK
.	8D\J
=30||	=30||
*M2/4	*M2/4
2r	8.F\L
.	16F\Jk
.	8.F\L
.	16D\Jk
=31	=31
2r	8.F\L
.	16F\Jk
.	8F\
.	8r
=32	=32
2r	2r
=33	=33
2r	8.B-;\L
.	16F\Jk
.	12G\L
.	12D\
.	12D\J
=34	=34
2r	8.F\L
.	16F\Jk
.	4F\
=35||	=35||
*M3/8	*M3/8
4.r	8r
.	16r
.	16D\LK
.	8D\J
=36||	=36||
*M2/4	*M2/4
2r	8.F\L
.	16F\Jk
.	8.F\L
.	16D\Jk
=37	=37
2r	8.F\L
.	16F\Jk
.	8F\
.	8r
==	==
*-	*-
